!!!COM:	Josquin des Prez
!!!CDT:	~1450-1521/08/27
!!!OPR:	Missa Hercules dux Ferrarie
!!!OTA:	Missa Philippus rex Castilie
!!!ONM:	1
!!!OTL:	Gloria
!!!AGN:	Mass; Gloria
!!!SCT:	NJE 11.1
!!!SCA:	New Josquin Edition 11.1
!!!voices: 4
!!!voices-OPR: 4(-6)
**kern	**kern	**kern	**kern
*staff4	*staff3	*staff2	*staff1
*Ivox	*Ivox	*Ivox	*Ivox
*I"Bassus	*I"Tenor	*I"Altus	*I"Superius
*I'B	*I'T	*I'A	*I'S
*>[A,B]	*>[A,B]	*>[A,B]	*>[A,B]
*>Gloria[A]	*>Gloria[A]	*>Gloria[A]	*>Gloria[A]
*>QuiTollis[B]	*>QuiTollis[B]	*>QuiTollis[B]	*>QuiTollis[B]
*clefF4	*clefGv2	*clefGv2	*clefG2
*>A	*>A	*>A	*>A
*k[]	*k[]	*k[]	*k[]
*M2/1	*M2/1	*M2/1	*M2/1
*met(C|)	*met(C|)	*met(C|)	*met(C|)
=1-	=1-	=1-	=1-
!!section: Et in terra pax
!!!OMD: Et in terra pax
0r	0r	1d	1r
.	.	1d	1a
=2	=2	=2	=2
0r	0r	1f	1a
.	.	1e	1cc
=3	=3	=3	=3
0r	0r	1.d	1b
.	.	.	[1a
.	.	2c\	.
=4	=4	=4	=4
0r	0r	2d\	2a/]
.	.	2B\	2g/
.	.	2A/	2a/
.	.	2d\	2f/
=5	=5	=5	=5
0r	0r	2e\	2e/
.	.	2c\	2a/
.	.	2d\	2b\
.	.	2B\	2g/
=6	=6	=6	=6
1r	0r	2A/	2a/
.	.	2d\	2f/
1AA	.	2e\	1e
.	.	2c\	.
=7	=7	=7	=7
1BB-i	0r	2d\	1d
.	.	1f	.
1BB-i	.	.	2r
.	.	4e\	2d/
.	.	4d\	.
=8	=8	=8	=8
1AA	0r	1c	1e
2r	.	2r	1e
2AA/	.	2c\	.
=9	=9	=9	=9
2BB-i/	0D	2d\	1d
2BB-i/	.	2D/	.
2BB-i/	.	2F/	2r
2BB-i/	.	2D/	2d/
=10	=10	=10	=10
1AA	0C	1A	2e/
.	.	.	2e/
2r	.	2G/	2e/
2AA/	.	2A/	2e/
=11	=11	=11	=11
2BB-i/	0D	2F/	1d
2GG/	.	2.G/	.
1BB-i	.	.	2r
.	.	4F/	.
.	.	2D/	2d/
=12	=12	=12	=12
1AA	0C	2r	2e/
.	.	2A/	2c/
2r	.	2G/	1e
2AA/	.	2A/	.
=13	=13	=13	=13
2BB-i/	0D	1F	2d/
2BB-i/	.	.	1f
2BB-i/	.	1G	.
2BB-i/	.	.	4e/
.	.	.	4d/
=14	=14	=14	=14
2AA/	0F	2.A/	0c
2.FF/	.	.	.
.	.	4G/	.
.	.	4A/	.
4GG/	.	4B\	.
4AA/	.	4c\	.
4BB-i/	.	4d\	.
=15	=15	=15	=15
2C/	0E	2e\	0r
2D\	.	2.d\	.
1AA	.	.	.
.	.	4c#i\	.
.	.	4c#i\	.
.	.	4B\	.
=16	=16	=16	=16
1A	0D	0d	0r
2B-i\	.	.	.
[2A\	.	.	.
=17	=17	=17	=17
2A\]	0r	0r	1a
2F\	.	.	.
2G\	.	.	2b-i\
2A\	.	.	[2a/
=18	=18	=18	=18
2.F\	0r	0r	2a/]
.	.	.	2f/
4D\	.	.	.
2E\	.	.	2g/
2D\	.	.	2a/
=19	=19	=19	=19
2r	0r	0r	2.f/
2D\	.	.	.
.	.	.	4d/
2C/	.	.	2e/
[2D\	.	.	2d/
=20	=20	=20	=20
4D\]	0r	0r	2r
4E\	.	.	.
4F\	.	.	2d/
4D\	.	.	.
2E\	.	.	2c/
2D\	.	.	[2d/
=21	=21	=21	=21
0r	0r	2r	4d/]
.	.	.	4e/
.	.	2d\	4f/
.	.	.	4d/
.	.	2c\	2e/
.	.	[2d\	2d/
=22	=22	=22	=22
0r	0r	4d\]	2r
.	.	4e\	.
.	.	4f\	2a/
.	.	4d\	.
.	.	2e\	2g/
.	.	2d\	[2a/
=23	=23	=23	=23
0r	0r	2r	4a/]
.	.	.	4b\
.	.	2A/	4cc\
.	.	.	4a/
.	.	2G/	2b\
.	.	[2A/	[2cc\
=24	=24	=24	=24
1r	0r	4A/]	4cc\]
.	.	4B\	4b\
.	.	4c\	2.a/
.	.	4A/	.
1E	.	1B	.
.	.	.	4g#i/
.	.	.	4g#i/
.	.	.	4f#i/
=25	=25	=25	=25
2F\	0A	2A/	1a
2D\	.	2d\	.
1F	.	2c\	2r
.	.	2A/	2a/
=26	=26	=26	=26
1E	0G	1e	2b\
.	.	.	2g/
2r	.	1d	1b
2G\	.	.	.
=27	=27	=27	=27
2F\	0A	2r	1a
2D\	.	2d\	.
1F	.	2c\	2r
.	.	2A/	2a/
=28	=28	=28	=28
1E	0G	1e	2b\
.	.	.	2g/
2r	.	1d	1b
2G\	.	.	.
=29	=29	=29	=29
2F\	0A	2r	1a
2D\	.	2d\	.
2.F\	.	2c\	2r
.	.	2A/	2a/
4E\	.	.	.
=30	=30	=30	=30
2C/	0c	1e	2g/
2.AA/	.	.	2a/
.	.	2r	2.cc\
4BB/	.	.	.
4C/	.	[2e\	.
4D\	.	.	4b\
=31	=31	=31	=31
2E\	0B	2e\]	2g/
2F\	.	2d\	2.a/
1E	.	1e	.
.	.	.	4g#i/
.	.	.	4g#i/
.	.	.	4f#i/
=32	=32	=32	=32
2AA/	0A	2c\	0a
2D\	.	2f\	.
2C/	.	2e\	.
[2D\	.	2d\	.
=33	=33	=33	=33
4D\]	0r	1f	2r
4E\	.	.	.
4F\	.	.	2d/
4G\	.	.	.
2A\	.	2e\	2c/
[2B\	.	2d\	[2d/
=34	=34	=34	=34
4B\]	0r	1.f	4d/]
4A\	.	.	4e/
1A	.	.	4f/
.	.	.	4g/
.	.	.	2a/
2G\	.	2e\	[2b\
=35	=35	=35	=35
2A\	0r	1c	4b\]
.	.	.	4a/
2c\	.	.	1a
1B	.	1d	.
.	.	.	2g/
=36	=36	=36	=36
1A	0r	0e	2a/
.	.	.	2cc\
2r	.	.	1b
2G\	.	.	.
=37	=37	=37	=37
2A\	0r	0r	1a
2.F\	.	.	.
.	.	.	2r
4D\	.	.	.
2E\	.	.	2g/
=38	=38	=38	=38
2F\	0r	0r	2a/
2.D\	.	.	2.f/
4BB/	.	.	4d/
2C/	.	.	2e/
=39	=39	=39	=39
4D\	0r	0r	2f/
4E\	.	.	.
4F\	.	.	2.d/
4G\	.	.	.
4E\	.	.	.
4D\	.	.	4B/
2A\	.	.	2c/
=40	=40	=40	=40
4B\	0r	1r	4d/
4A\	.	.	4e/
2.d\	.	.	4f/
.	.	.	4d/
.	.	1A	1e
4c#i\	.	.	.
4c#i\	.	.	.
4B\	.	.	.
=41	=41	=41	=41
1d	0d	2B\	2d/
.	.	2G/	2.dd\
2r	.	1B	.
.	.	.	4cc\
2G\	.	.	4dd\
.	.	.	4b\
=42	=42	=42	=42
2A\	0c	1A	2cc\
2F\	.	.	2.a/
1A	.	2r	.
.	.	.	4g/
.	.	2A/	4e/
.	.	.	4f/
=43	=43	=43	=43
1G	0d	2B\	4g/
.	.	.	4a/
.	.	2G/	4b\
.	.	.	4cc\
2r	.	1B	2dd\
2G\	.	.	2b\
=44	=44	=44	=44
2A\	0c	1A	2cc\
2F\	.	.	2.a/
1A	.	2r	.
.	.	.	4g/
.	.	2A/	4e/
.	.	.	4f/
=45	=45	=45	=45
1G	0d	2B\	4g/
.	.	.	4a/
.	.	2G/	4b\
.	.	.	4cc\
2r	.	1B	2dd\
2G\	.	.	2b\
=46	=46	=46	=46
2F\	0f	2A/	2cc\
2D\	.	2d\	4f/
.	.	.	4g/
2.F\	.	2c\	4a/
.	.	.	4b\
.	.	2A/	[2cc\
4E\	.	.	.
=47	=47	=47	=47
2.C/	0e	2.c\	4cc\]
.	.	.	4b\
.	.	.	2.g/
4D\	.	4B\	.
4E\	.	[1G	.
4F\	.	.	4a/
[2G\	.	.	[2b-i\
=48	=48	=48	=48
2G\]	[0dl	2G/]	2b-\]
2F\	.	2A/	2a/
1G	.	1B-i	1g
=49	=49	=49	=49
0Dl	0d]	0Al	0fl
!!LO:LB:i:g=z
=50||	=50||	=50||	=50||
*>B	*>B	*>B	*>B
!!section: Qui tollis
!!!OMD: Qui tollis
*M2/1	*M2/1	*M2/1	*M2/1
*met(C|)	*met(C|)	*met(C|)	*met(C|)
0D	0r	1A	0r
.	.	2B-i\	.
.	.	[2A/	.
=51	=51	=51	=51
1C	0r	2A/]	0r
.	.	4G/	.
.	.	4F/	.
1C	.	1E	.
=52	=52	=52	=52
2.D\	0r	2D/	0r
.	.	2A/	.
4C/	.	.	.
4D\	.	2B-i\	.
4E\	.	.	.
[2F\	.	[2A/	.
=53	=53	=53	=53
2F\]	0r	2A/]	0r
4E\	.	4G/	.
4D\	.	4F/	.
4C#i/	.	1E	.
4D\	.	.	.
4E\	.	.	.
4C#i/	.	.	.
=54	=54	=54	=54
0D	0r	1D	2r
.	.	.	2a/
.	.	1d	2b-i\
.	.	.	[2a/
=55	=55	=55	=55
0r	0r	1c	2a/]
.	.	.	4g/
.	.	.	4f/
.	.	1c	1e
=56	=56	=56	=56
0r	0r	2.d\	2d/
.	.	.	2a/
.	.	4c\	.
.	.	4d\	2b-i\
.	.	4e\	.
.	.	[2f\	[2a/
=57	=57	=57	=57
0r	0r	2f\]	2a/]
.	.	4e\	4g/
.	.	4d\	4f/
.	.	4c#i\	1e
.	.	4d\	.
.	.	4e\	.
.	.	4c#i\	.
=58	=58	=58	=58
1A	0D	0d	1d
2B-i\	.	.	1r
[2A\	.	.	.
=59	=59	=59	=59
2A\]	0C	0r	0r
4G\	.	.	.
4F\	.	.	.
1E	.	.	.
=60	=60	=60	=60
2D\	0D	0r	0r
2A\	.	.	.
2B-i\	.	.	.
[2A\	.	.	.
=61	=61	=61	=61
2A\]	0C	0r	0r
4G\	.	.	.
4F\	.	.	.
1E	.	.	.
=62	=62	=62	=62
1D	0D	2r	1r
.	.	1d	.
2r	.	.	[1a
[2D\	.	2d\	.
=63	=63	=63	=63
2D\]	0F	2d\	2a/]
2D\	.	2d\	2a/
2D\	.	2d\	1a
2D\	.	2A/	.
=64	=64	=64	=64
2G\	0E	2B\	2g/
2E\	.	2G/	2g/
2G\	.	2B\	2g/
2C/	.	2c\	2g/
=65	=65	=65	=65
2.F\	0D	1d	2f/
.	.	.	4d/
4G\	.	.	4e/
2A\	.	2.d\	4f/
.	.	.	4g/
2D\	.	.	2a/
.	.	4B\	.
=66	=66	=66	=66
2.G\	0r	2.B\	2d/
.	.	.	1g
4E\	.	4G/	.
2E\	.	2.G/	.
[2C/	.	.	2e/
.	.	4E/	.
=67	=67	=67	=67
2C/]	0r	1E	2.e/
2AA/	.	.	.
.	.	.	4c/
1AA	.	2r	2.c/
.	.	[2e\	.
.	.	.	4A/
=68	=68	=68	=68
2r	0r	2e\]	1A
2A\	.	2c\	.
2F\	.	2d\	1r
2G\	.	2e\	.
=69	=69	=69	=69
2A\	0r	2A/	0r
2D\	.	2r	.
2r	.	2A/	.
2D\	.	2B\	.
=70	=70	=70	=70
2E\	0r	2c\	0r
2F\	.	2d\	.
2G\	.	2.B\	.
[2E\	.	.	.
.	.	4G/	.
=71	=71	=71	=71
4E\]	0r	2G/	0r
4C/	.	.	.
2C/	.	2r	.
2r	.	2G/	.
2C/	.	2A/	.
=72	=72	=72	=72
2D\	0r	2B\	0r
2E\	.	2c\	.
2F\	.	2A/	.
2D\	.	2B\	.
=73	=73	=73	=73
2E\	0r	2c\	0r
2F\	.	2d\	.
2G\	.	2e\	.
[2A\	.	4A/	.
.	.	4B\	.
=74	=74	=74	=74
4A\]	0A	4c\	0r
4G\	.	4d\	.
4F\	.	1e	.
4E\	.	.	.
1F	.	.	.
.	.	2d\	.
=75	=75	=75	=75
1E	0G	2e\	2r
.	.	2c\	2g/
2r	.	1B	2g/
2E\	.	.	2g/
=76	=76	=76	=76
2F\	0A	2r	2c/
2.D\	.	2.d\	2.f/
4E\	.	4c\	4g/
2F\	.	2A/	2a/
=77	=77	=77	=77
2G\	0G	2B\	2d/
2.C/	.	2.c\	2.e/
4D\	.	4B\	4f/
2E\	.	2G/	2g/
=78	=78	=78	=78
2F\	0A	2r	2c/
2D\	.	2d\	2.f/
2.F\	.	2c\	.
.	.	.	4g/
.	.	2f\	[2a/
4G\	.	.	.
=79	=79	=79	=79
1A	0c	2e\	4a/]
.	.	.	4b\
.	.	4A/	1cc
.	.	4B\	.
2r	.	4c\	.
.	.	4d\	.
2AA/	.	2e\	4b\
.	.	.	4a/
=80	=80	=80	=80
2.E\	0B	2r	1g
.	.	2e\	.
4F\	.	.	.
2G\	.	2d\	2r
2E\	.	2e\	2g/
=81	=81	=81	=81
2F\	0A	2c\	2a/
2D\	.	2d\	2f/
2.F\	.	2A/	2.a/
.	.	[2c\	.
4G\	.	.	4g/
=82	=82	=82	=82
1A	0r	4c\]	2e/
.	.	4d\	.
.	.	2e\	4A/
.	.	.	4B/
2r	.	2A/	4c/
.	.	.	4d/
2AA/	.	[2c\	4e/
.	.	.	4f/
=83	=83	=83	=83
2.E\	0r	4c\]	2.g/
.	.	4B\	.
.	.	4G/	.
4F\	.	4A/	4f/
2G\	.	2B\	2d/
2E\	.	2c\	2g/
=84	=84	=84	=84
2F\	0r	2A/	2c/
2D\	.	2.d\	2.f/
2.F\	.	.	.
.	.	4c\	4g/
.	.	[2A/	2a/
4G\	.	.	.
=85	=85	=85	=85
1A	0r	4A/]	2e/
.	.	4B\	.
.	.	4c\	4A/
.	.	4d\	4B/
2r	.	2e\	4c/
.	.	.	4d/
2AA/	.	2c\	4e/
.	.	.	4f/
=86	=86	=86	=86
2.E\	0r	2B\	2.g/
.	.	2.e\	.
4F\	.	.	4a/
2G\	.	.	2b\
.	.	4d\	.
2D\	.	[2f\	[2a/
=87	=87	=87	=87
2.F\	0r	2f\]	2a/]
.	.	4e\	4g/
4G\	.	4d\	4f/
1A	.	4c#i\	1e
.	.	4d\	.
.	.	4e\	.
.	.	4c#i\	.
=88	=88	=88	=88
*	*	*M3/3%2	*
*	*	*met(3/2)	*
1D	0r	3d\	2r
.	.	3f\	.
.	.	.	2d/
.	.	3e\	.
2r	.	3.d\	2a/
2G\	.	6c\	2b\
.	.	3B\	.
=89	=89	=89	=89
2.A\	0r	3%2.A	2.cc\
4G\	.	.	4b\
2F\	.	3r	2a/
.	.	3r	.
2E\	.	.	2g/
.	.	3e\	.
=90	=90	=90	=90
1D	0d	3%2f	2f/
.	.	.	2d/
.	.	3e\	.
2r	.	3.d\	2a/
2G\	.	6c\	2b\
.	.	3B\	.
=91	=91	=91	=91
2.A\	0c	3%2.A	2.cc\
4G\	.	.	4b\
2F\	.	3r	2a/
.	.	3r	.
2E\	.	.	2g/
.	.	3e\	.
=92	=92	=92	=92
1D	0d	3%2f	2f/
.	.	.	2d/
.	.	3e\	.
2r	.	3.d\	2a/
2GG/	.	6c\	2b\
.	.	3B\	.
=93	=93	=93	=93
*	*	*M2/1	*
*	*	*met(C|)	*
2.AA/	0c	2.A/	2.cc\
4BB/	.	4G/	4b\
2C/	.	2E/	2g/
2FF/	.	[2F/	2a/
=94	=94	=94	=94
2.BB-/	0d	4F/]	2r
.	.	4D/	.
.	.	2.D/	2.f/
4C/	.	.	.
2D\	.	.	.
.	.	4E/	4g/
2GG/	.	2G/	2b-\
=95	=95	=95	=95
2.D\	0f	4F/	2r
.	.	4D/	.
.	.	2.F/	2.a/
4E\	.	.	.
2F\	.	.	.
.	.	4G/	4b-i\
2BB-i/	.	2B-\	2dd\
=96	=96	=96	=96
2.C/	0e	2r	2.cc\
.	.	2.G/	.
4D\	.	.	4b-i\
2E\	.	.	2g/
.	.	4A/	.
2AA/	.	2c\	2a/
=97	=97	=97	=97
2.BB-i/	[0dl	2.B-i\	2r
.	.	.	2.f/
4C/	.	4A/	.
2D\	.	2F/	.
.	.	.	4g/
2GG/	.	2G/	2b-i\
=98	=98	=98	=98
1D	0d_	2r	2a/
.	.	2.D/	2f/
1GG	.	.	1b-i
.	.	4E/	.
.	.	2G/	.
=99	=99	=99	=99
[0Dl	0d_	2r	1a
.	.	2.F/	.
.	.	.	2.d/
.	.	4G/	.
.	.	2B-i\	.
.	.	.	4e/
=100	=100	=100	=100
0D_	0d_	2A/	[0fl
.	.	2F/	.
.	.	1B-i	.
=101	=101	=101	=101
0D]	0d]	0Al	0f]
==	==	==	==
*-	*-	*-	*-
!!!RDF**kern: %=rational rhythm
!!!rscale-alt: 1/4
!!!RDF**kern: l=long note in original notation
!!!RDF**kern: i=editorial accidental
!!!ENC: Jesse Rodin; Victoria Chang 2011/09/10
!!!END: 2011/09/10/
!!!EED:	Jesse Rodin
!!!EEV:	2011/10/26/
!!attribution-level: 1 (secure)
!!!ONB:	Translated from MusicXML and edited on 2011/10/26/ by Craig Sapp
!!muse2ps: T^@{OPR}^u^@{ONM}{. }@{OTL}^C^@{COM}\n@{SCT}^i2I100v85,90,85,100Q16
